svgs/light/hands-bound.svg

<svg xmlns="http://www.w3.org/2000/svg" viewBox="0 0 640 512"><!--! Font Awesome Pro 6.3.0 by @fontawesome - https://fontawesome.com License - https://fontawesome.com/license (Commercial License) Copyright 2023 Fonticons, Inc. --><path d="M16.81 47.99C16.81 21.25 38.66-.3702 65.5 .0048C91.47 .3798 112.7 23.75 112.7 49.74L112 154.7L173.9 228C181 236.4 194 226.3 187.5 217.3L158.9 178.1C145.6 159.6 145.8 133.4 161.4 116.7C186.9 89.33 221.1 101.5 235.8 120.7L278.2 179.1C294.8 201.2 303.8 228.2 303.8 255.9V352H336V255.9C336 228.2 344.1 201.2 361.6 179.1L403.9 120.7C417.8 101.5 452.9 89.33 478.3 116.7C493.9 133.4 494.2 159.6 480.8 178.1L452.2 217.3C445.7 226.3 458.7 236.4 465.8 228L527.8 154.7L527.1 49.74C527.1 23.75 548.3 .3798 574.3 .0048C601.1-.3702 622.9 21.25 622.9 47.99L623.8 186.2C623.8 197.2 620 207.7 613.3 216.2L506.4 349.9C505.9 350.6 505.3 351.3 504.8 352H528C536.8 352 544 359.2 544 368C544 376.8 536.8 384 528 384H112C103.2 384 96 376.8 96 368C96 359.2 103.2 352 112 352H134.9C134.4 351.3 133.9 350.6 133.4 349.9L26.49 216.2C19.75 207.7 16 197.2 16 186.2L16.81 47.99zM170.2 352H271.9L271.8 255.9C271.8 235.3 265.1 214.8 252.3 197.9L210 139.6C204.6 132.2 194.6 130.8 187.7 136.1C179.8 141.7 179.3 151.8 184.2 158.3L214.6 200.6C214.9 200.8 215.1 201.1 215.1 201.3C241.2 241 181.3 288 144.5 243.7L79.92 166.2L80.61 48.62C80.61 26.25 48.65 26.87 48.65 47.87L47.96 186.2C47.96 189.8 49.21 193.4 51.46 196.2L158.3 329.9C163.3 336.1 167.3 343.8 170.2 352V352zM588.3 196.2C590.6 193.4 591.8 189.8 591.8 186.2L591.1 47.87C591.1 26.87 559.2 26.25 559.2 48.62L559.8 166.2L495.3 243.7C458.5 288 398.5 241 424.6 201.3C424.6 201.1 424.9 200.8 425.1 200.6L455.6 158.3C460.5 151.8 459.1 141.7 452.1 136.1C445.1 130.8 435.1 132.2 429.8 139.6L387.4 197.9C374.7 214.8 367.1 235.3 367.1 255.9L367.9 352H469.6C472.5 343.8 476.5 336.1 481.4 329.9L588.3 196.2zM528 416C536.8 416 544 423.2 544 432C544 440.8 536.8 448 528 448H496V496C496 504.8 488.8 512 480 512C471.2 512 464 504.8 464 496V448H368V496C368 504.8 360.8 512 352 512C343.2 512 336 504.8 336 496V448H304V496C304 504.8 296.8 512 288 512C279.2 512 272 504.8 272 496V448H176V496C176 504.8 168.8 512 160 512C151.2 512 144 504.8 144 496V448H112C103.2 448 96 440.8 96 432C96 423.2 103.2 416 112 416H528z"/></svg>

<svg xmlns="http://www.w3.org/2000/svg" viewBox="0 0 640 512"><!--! Font Awesome Pro 6.4.0 by @fontawesome - https://fontawesome.com License - https://fontawesome.com/license (Commercial License) Copyright 2023 Fonticons, Inc. --><path d="M16.8 48C16.8 21.2 38.7-.4 65.5 0c26 .4 47.2 23.7 47.2 49.7L112 154.7 173.9 228c7.1 8.4 20.1-1.8 13.6-10.7l-28.6-39.2c-13.4-18.5-13.1-44.6 2.5-61.4c25.5-27.4 60.5-15.2 74.4 4l42.3 58.4c16.6 22.1 25.6 49.1 25.6 76.9V352H336V255.9c0-27.7 9-54.7 25.6-76.9l42.3-58.4c13.9-19.2 48.9-31.4 74.4-4c15.6 16.7 15.9 42.9 2.5 61.4l-28.6 39.2c-6.5 9 6.5 19.1 13.6 10.7l61.9-73.4-.7-104.9c0-26 21.2-49.4 47.2-49.7c26.8-.4 48.7 21.2 48.7 48l.8 138.2c0 11-3.7 21.5-10.5 30L506.4 349.9c-.5 .7-1.1 1.4-1.6 2.1H528c8.8 0 16 7.2 16 16s-7.2 16-16 16H112c-8.8 0-16-7.2-16-16s7.2-16 16-16h22.9c-.5-.7-1-1.4-1.6-2.1L26.5 216.2c-6.7-8.5-10.5-19-10.5-30L16.8 48zM170.2 352H271.9l-.1-96.1c0-20.6-6.7-41.1-19.5-58L210 139.6c-5.4-7.4-15.4-8.7-22.3-3.5c-7.9 5.6-8.4 15.7-3.5 22.2l30.5 42.2c.2 .2 .5 .5 .5 .8c26.1 39.7-33.8 86.7-70.7 42.4L87.4 175.2c-4.8-5.8-7.5-13.1-7.4-20.7l.6-105.9c0-22.4-32-21.7-32-.7L48 186.2c0 3.6 1.2 7.2 3.5 10L158.3 329.9c5 6.2 9 13.9 11.9 22.1zm311.2-22.1L588.3 196.2c2.2-2.7 3.5-6.4 3.5-10l-.7-138.3c0-21-32-21.6-32 .7l.6 105.9c0 7.5-2.6 14.9-7.4 20.7l-57.1 68.5c-36.8 44.4-96.8-2.6-70.7-42.4c0-.2 .2-.5 .5-.8l30.5-42.2c4.9-6.5 4.4-16.6-3.5-22.2c-7-5.2-17-3.9-22.3 3.5l-42.3 58.4c-12.7 16.9-19.5 37.4-19.5 58l-.1 96.1H469.6c2.9-8.2 6.9-15.9 11.9-22.1zM112 416H528c8.8 0 16 7.2 16 16s-7.2 16-16 16H496v48c0 8.8-7.2 16-16 16s-16-7.2-16-16V448H368v48c0 8.8-7.2 16-16 16s-16-7.2-16-16V448H304v48c0 8.8-7.2 16-16 16s-16-7.2-16-16V448H176v48c0 8.8-7.2 16-16 16s-16-7.2-16-16V448H112c-8.8 0-16-7.2-16-16s7.2-16 16-16z"/></svg>
